assets/Inspection module.svg

<svg xmlns="http://www.w3.org/2000/svg" viewBox="0 0 192 192"><defs><style>.cls-1{fill:#334056}</style></defs><g id="trim_area" data-name="trim area"><path class="cls-1" d="M99.94 60H43.87a4 4 0 1 1 0-8h56.07a4 4 0 0 1 0 8ZM120 84H43.87a4 4 0 1 1 0-8H120a4 4 0 0 1 0 8Zm-39.51 24h-36.1a4 4 0 0 1 0-8h36.1a4 4 0 0 1 0 8Z"/><path class="cls-1" d="M87.92 177.75a6 6 0 0 0-6-6H27.35c-4 0-7.17-3.58-7.17-8V27.92c0-4.41 3.22-8 7.17-8h107c4 0 7.17 3.59 7.17 8v49.92a6 6 0 0 0 6 6 6 6 0 0 0 6-6V27.92c0-11-8.58-20-19.17-20h-107c-10.59 0-19.17 9-19.17 20v135.83c0 11.05 8.58 20 19.17 20h54.57a6 6 0 0 0 6-6Zm87.98-21.64V176h-19.81v-19.89h19.81m8-8h-35.81V184h35.81v-35.89Z"/><path class="cls-1" d="M135.9 156v20h-19.81v-20h19.81m8-8h-35.81v36h35.81v-36Zm32-31.92V136h-19.81v-19.92h19.81m8-8h-35.81V144h35.81v-35.92Zm-48 8V136h-19.81v-19.92h19.81m8-8h-35.81V144h35.81v-35.92Z"/></g></svg>

<svg xmlns="http://www.w3.org/2000/svg" viewBox="0 0 192 192"><defs><style>.cls-1,.cls-2{fill:#334056;}.cls-2{opacity:0;}</style></defs><g id="trim_area" data-name="trim area"><path class="cls-1" d="M99.94,60H43.87a4,4,0,1,1,0-8H99.94a4,4,0,0,1,0,8Z"/><path class="cls-1" d="M120,84H43.87a4,4,0,1,1,0-8H120a4,4,0,0,1,0,8Z"/><path class="cls-1" d="M80.49,108H44.39a4,4,0,0,1,0-8h36.1a4,4,0,0,1,0,8Z"/><path class="cls-1" d="M87.92,177.75a6,6,0,0,0-6-6H27.35c-4,0-7.17-3.58-7.17-8V27.92c0-4.41,3.22-8,7.17-8h107c4,0,7.17,3.59,7.17,8V77.84a6,6,0,0,0,6,6h0a6,6,0,0,0,6-6V27.92c0-11-8.58-20-19.17-20h-107c-10.59,0-19.17,9-19.17,20V163.75c0,11.05,8.58,20,19.17,20H81.92a6,6,0,0,0,6-6Z"/><path class="cls-1" d="M175.9,156.11V176H156.09V156.11H175.9m8-8H148.09V184H183.9V148.11Z"/><path class="cls-1" d="M135.9,156V176H116.09V156H135.9m8-8H108.09V184H143.9V148Z"/><path class="cls-1" d="M175.9,116.08V136H156.09V116.08H175.9m8-8H148.09V144H183.9V108.08Z"/><path class="cls-1" d="M135.9,116.08V136H116.09V116.08H135.9m8-8H108.09V144H143.9V108.08Z"/><rect class="cls-2" width="192" height="192"/></g></svg>
